Obsidian-SemiLight/actions/22s/amarok_scripts.svg

<svg viewBox="0 0 22 22" xmlns="http://www.w3.org/2000/svg"><path d="m4.765625 4-.765625.6054688 4.7070312 5.3945312-4.7070312 5.394531.765625.605469 5.234375-6zm5.234375 13v1h8v-1z" fill="#4d4d4d"/></svg>

<svg xmlns="http://www.w3.org/2000/svg" viewBox="0 0 22 22">
  <defs id="defs3051">
    <style type="text/css" id="current-color-scheme">
      .ColorScheme-Text {
        color:#4d4d4d;
      }
      </style>
  </defs>
 <path 
     style="fill:currentColor;fill-opacity:1;stroke:none" 
	d="M 4.765625 4 L 4 4.6054688 L 8.7070312 10 L 4 15.394531 L 4.765625 16 L 10 10 L 4.765625 4 z M 10 17 L 10 18 L 18 18 L 18 17 L 10 17 z "
	 class="ColorScheme-Text"
     />
</svg>
